img/arrow-49.svg

<svg fill="none" height="13" viewBox="0 0 17 13" width="17" xmlns="http://www.w3.org/2000/svg"><path d="m15.8711 7.09866c.3306-.33063.3306-.86669 0-1.19732l-5.3879-5.387899c-.3306-.330629-.86667-.330629-1.1973 0-.33063.330628-.33063.866679 0 1.197309l4.7892 4.78925-4.7892 4.7892c-.33063.3307-.33063.8667 0 1.1974.33063.3306.8667.3306 1.1973 0zm-14.14468-1.44529c-.46758 0-.846624.37905-.846624.84663s.379044.84663.846624.84663zm13.54608 0h-13.54608v1.69326h13.54608z" fill="#0080ff"/></svg>

<svg width="17" height="13" viewBox="0 0 17 13" fill="none" xmlns="http://www.w3.org/2000/svg">
<path d="M15.8711 7.09866C16.2017 6.76803 16.2017 6.23197 15.8711 5.90134L10.4832 0.513441C10.1526 0.182812 9.61653 0.182812 9.2859 0.513441C8.95527 0.844069 8.95527 1.38012 9.2859 1.71075L14.0751 6.5L9.2859 11.2892C8.95527 11.6199 8.95527 12.1559 9.2859 12.4866C9.61653 12.8172 10.1526 12.8172 10.4832 12.4866L15.8711 7.09866ZM1.72642 5.65337C1.25884 5.65337 0.879796 6.03242 0.879796 6.5C0.879796 6.96758 1.25884 7.34663 1.72642 7.34663V5.65337ZM15.2725 5.65337L1.72642 5.65337V7.34663L15.2725 7.34663V5.65337Z" fill="#0080FF"/>
</svg>
